public/svg/icon/lun.svg

<svg xmlns="http://www.w3.org/2000/svg" xmlns:xlink="http://www.w3.org/1999/xlink" width="32" height="32" viewBox="0 0 32 32"><defs><linearGradient id="lun-c" x1="50%" x2="50%" y1="0%" y2="100%"><stop offset="0%" stop-color="#FFF" stop-opacity=".5"/><stop offset="100%" stop-opacity=".5"/></linearGradient><circle id="lun-b" cx="16" cy="15" r="15"/><filter id="lun-a" width="111.7%" height="111.7%" x="-5.8%" y="-4.2%" filterUnits="objectBoundingBox"><feOffset dy=".5" in="SourceAlpha" result="shadowOffsetOuter1"/><feGaussianBlur in="shadowOffsetOuter1" result="shadowBlurOuter1" stdDeviation=".5"/><feComposite in="shadowBlurOuter1" in2="SourceAlpha" operator="out" result="shadowBlurOuter1"/><feColorMatrix in="shadowBlurOuter1" values="0 0 0 0 0 0 0 0 0 0 0 0 0 0 0 0 0 0 0.199473505 0"/></filter><path id="lun-e" d="M15.8133523,5.04846386 C15.9285714,4.98384538 16.0702013,4.98384538 16.1854205,5.04846386 L24.4102955,9.66642653 C24.5253164,9.73082454 24.5963257,9.85045848 24.5964525,9.98005706 C24.5965792,10.1096556 24.5258039,10.2294221 24.4109091,10.294035 L17.2559091,14.3277898 C17.0057966,14.0424198 16.661465,13.8515955 16.2825795,13.7883825 L16.2825795,11.5952527 C17.0582159,11.466051 17.6491477,10.809542 17.6491477,10.0168313 C17.6491477,9.13161927 16.9127841,8.41400953 16.0040909,8.41400953 C15.0953977,8.41400953 14.3592386,9.13161927 14.3592386,10.0168313 C14.3592386,10.805142 14.9437273,11.4589509 15.7129205,11.5931527 L15.7129205,13.7907825 C15.3394167,13.8561085 15.0004792,14.0456421 14.7535,14.3272898 L7.59757955,10.3086352 C7.34977273,10.1694334 7.34926136,9.82082863 7.59696591,9.68112673 L15.8134545,5.04976388 M24.4336136,10.8669428 C24.5483814,10.8016755 24.69004,10.8012269 24.8052377,10.865766 C24.9204353,10.9303052 24.9916745,11.0500291 24.992125,11.1798471 L25,20.1468688 C25.0000097,20.2763861 24.9292145,20.3960292 24.814375,20.460573 L16.849375,24.950634 C16.6015682,25.0906359 16.2916818,24.9161335 16.2916818,24.6374297 L16.2849318,16.9437253 C16.6711212,16.8797008 17.0212088,16.6828675 17.2720682,16.3887178 L19.2617841,17.5039329 C19.2068236,17.7089443 19.1942371,17.9226157 19.2247614,18.1324414 C19.3514773,19.0090533 20.1835682,19.6194616 21.0833636,19.4955599 C21.9831591,19.3716582 22.609375,18.5611472 22.4826591,17.6844353 C22.3559432,16.8077234 21.5236477,16.1972152 20.6240568,16.3213168 C20.1696919,16.3833833 19.7627595,16.628889 19.5022273,16.998126 L17.5527045,15.9052112 C17.6911002,15.5337398 17.6818295,15.1250025 17.5267273,14.7598957 L24.4348409,10.8658428 M7.00818182,11.1798471 C7.00818182,10.9683442 7.18644318,10.8172421 7.38025,10.8172421 C7.44549573,10.817331 7.50954945,10.8343432 7.565875,10.8665428 L14.4814545,14.7648957 C14.3284819,15.1289598 14.3199842,15.5357429 14.457625,15.9056112 L12.5090227,16.997626 C12.2484275,16.6285964 11.841688,16.3831399 11.3875,16.3208168 C10.4875,16.1972152 9.65581818,16.8077234 9.52889773,17.6839353 C9.40197727,18.5601472 10.0285,19.3712582 10.9281932,19.4950599 C11.8278864,19.6188616 12.659875,19.0081533 12.7867955,18.1319414 C12.8172836,17.922109 12.8046624,17.708438 12.7496705,17.5034329 L14.738875,16.3884178 C14.9877056,16.6798447 15.3339248,16.8758358 15.7162955,16.9417253 L15.7095455,24.6372297 C15.7095455,24.9159335 15.3993523,25.0901359 15.1518523,24.950434 L7.185625,20.459973 C7.07084816,20.3954166 7.00006927,20.2758392 7,20.1463688 L7.00797727,11.1798471"/><filter id="lun-d" width="119.4%" height="117.5%" x="-9.7%" y="-6.2%" filterUnits="objectBoundingBox"><feOffset dy=".5" in="SourceAlpha" result="shadowOffsetOuter1"/><feGaussianBlur in="shadowOffsetOuter1" result="shadowBlurOuter1" stdDeviation=".5"/><feColorMatrix in="shadowBlurOuter1" values="0 0 0 0 0 0 0 0 0 0 0 0 0 0 0 0 0 0 0.204257246 0"/></filter></defs><g fill="none" fill-rule="evenodd"><g fill-rule="nonzero"><use fill="#000" filter="url(#lun-a)" xlink:href="#lun-b"/><use fill="#F55749" fill-rule="evenodd" xlink:href="#lun-b"/><use fill="url(#lun-c)" fill-rule="evenodd" style="mix-blend-mode:soft-light" xlink:href="#lun-b"/><circle cx="16" cy="15" r="14.5" stroke="#000" stroke-opacity=".097"/></g><g fill-rule="nonzero"><use fill="#000" filter="url(#lun-d)" xlink:href="#lun-e"/><use fill="#FFF" fill-rule="evenodd" xlink:href="#lun-e"/></g></g></svg>

<svg xmlns="http://www.w3.org/2000/svg" xmlns:xlink="http://www.w3.org/1999/xlink" width="32" height="32" viewBox="0 0 32 32"><defs><filter id="a" width="111.7%" height="111.7%" x="-5.8%" y="-4.2%" filterUnits="objectBoundingBox"><feOffset dy=".5" in="SourceAlpha" result="shadowOffsetOuter1"/><feGaussianBlur in="shadowOffsetOuter1" result="shadowBlurOuter1" stdDeviation=".5"/><feComposite in="shadowBlurOuter1" in2="SourceAlpha" operator="out" result="shadowBlurOuter1"/><feColorMatrix in="shadowBlurOuter1" values="0 0 0 0 0 0 0 0 0 0 0 0 0 0 0 0 0 0 0.199473505 0"/></filter><filter id="d" width="119.4%" height="117.5%" x="-9.7%" y="-6.2%" filterUnits="objectBoundingBox"><feOffset dy=".5" in="SourceAlpha" result="shadowOffsetOuter1"/><feGaussianBlur in="shadowOffsetOuter1" result="shadowBlurOuter1" stdDeviation=".5"/><feColorMatrix in="shadowBlurOuter1" values="0 0 0 0 0 0 0 0 0 0 0 0 0 0 0 0 0 0 0.204257246 0"/></filter><linearGradient id="c" x1="50%" x2="50%" y1="0%" y2="100%"><stop offset="0%" stop-color="#FFF" stop-opacity=".5"/><stop offset="100%" stop-opacity=".5"/></linearGradient><circle id="b" cx="16" cy="15" r="15"/><path id="e" d="M15.813 5.048a.381.381 0 01.372 0l8.225 4.618a.36.36 0 01.186.314c0 .13-.07.25-.185.314l-7.155 4.034a1.656 1.656 0 00-.973-.54v-2.193c.775-.129 1.366-.785 1.366-1.578 0-.885-.736-1.603-1.645-1.603s-1.645.718-1.645 1.603c0 .788.585 1.442 1.354 1.576v2.198a1.654 1.654 0 00-.96.536L7.599 10.31a.358.358 0 01-.001-.628l8.216-4.631m8.62 5.817a.379.379 0 01.372-.001.362.362 0 01.187.314L25 20.147c0 .13-.07.249-.186.314l-7.965 4.49c-.247.14-.557-.035-.557-.314l-.007-7.693c.386-.064.736-.261.987-.555l1.99 1.115a1.56 1.56 0 00-.037.628c.126.877.959 1.487 1.858 1.364.9-.124 1.526-.935 1.4-1.812-.127-.876-.96-1.487-1.859-1.363a1.644 1.644 0 00-1.122.677l-1.95-1.093c.14-.371.13-.78-.025-1.145l6.908-3.894m-17.427.314c0-.212.178-.363.372-.363.065 0 .13.017.186.05l6.915 3.898c-.153.364-.161.77-.023 1.14l-1.949 1.093a1.645 1.645 0 00-1.122-.677c-.9-.124-1.731.487-1.858 1.363s.5 1.687 1.4 1.811c.899.124 1.73-.487 1.858-1.363a1.56 1.56 0 00-.037-.629l1.989-1.115c.249.292.595.488.977.554l-.006 7.695c0 .279-.31.453-.558.313l-7.966-4.49A.36.36 0 017 20.146l.008-8.966"/></defs><g fill="none"><use fill="#000" filter="url(#a)" xlink:href="#b"/><use fill="#F55749" fill-rule="evenodd" xlink:href="#b"/><use fill="url(#c)" fill-rule="evenodd" style="mix-blend-mode:soft-light" xlink:href="#b"/><circle cx="16" cy="15" r="14.5" stroke="#000" stroke-opacity=".097"/><use fill="#000" filter="url(#d)" xlink:href="#e"/><use fill="#FFF" fill-rule="evenodd" xlink:href="#e"/></g></svg>
